X:1
T:Bezeichnung standardisiert: Le Pistolet;
T:Bezeichnung standardisiert: Le Pistolet;
T:22 | Pistolet. In anderer Quelle: Le Pistolet - R. A. Feuillet, 1706 (Anm. S. Wascher);  Fechten Tantz - Dahlhoff SBB 1-102b (Anm. S. Wascher);  Le Pistolet - E.A. Jayme, Wolfenb\"uttel 1717 (Anm. S. Wascher);  Pistolet - Johann Friedrich Drey\sser, 1720 (Anm. S. Wascher);  Het Schermschool - Hs. Volksmelodie\"en 1755-1773 (Anm. S. Wascher);  Pistolekt - Dahlhoff SBB 01,091/2 (Anm. S. Wascher);
T:Urheber unbekannt Erstbeleg: 1706 (Datum in der schriftlichen Quelle)
C:Urheber unbekannt
C:Erstbeleg: 1706 (Datum in der schriftlichen Quelle)
%%score 1 2
L:1/8
M:2/2
K:D
V:1 treble 
V:2 bass 
V:1
 F2 FG A2 AB | c4 A4 | d2 c2 B2 A2 | G3 F F4 | c2 c2 d2 e2 | f4 d4 | g2 g2 f2 e2 | d3 c c4 :: %8
 g4 a4 | b6 a2 | g2 a2 f2 g2 | e3 d c2 c2 | f2 fe d2 d2 | g2 gf e2 e2 | a2 a2"^\202" b2 a2 | %15
 g3 f f4 :| %16
V:2
 !fermata!F,2 F,2 F,,2 F,,2 | F,4 F,,4 | G,,2 F,,2 G,2 F,2 | C,2 C,,2 F,,4 | F,2 F,2 G,2 G,2 | %5
 D,4 G,,4 | C,2 C,2 D,2 C,2 | G,2 G,,2 C,,4 :: C,4 F,,4 | G,,6 F,,2 | C,2 F,2 D,2 C,2 | %11
 G,2 G,,2 C,,4 | B,,2 B,,2 G,,2 G,,2 | C,2 C,2 C,,2 C,,2 | F,,2 C,2 G,,2 F,,2 | C,2 C,2 F,,4 :| %16

